<?xml version="1.0" encoding="UTF-8"?>
<map version="1.10" tiledversion="1.12.1" orientation="orthogonal" renderorder="right-down" compressionlevel="0" width="3" height="3" tilewidth="16" tileheight="16" infinite="0" nextlayerid="9" nextobjectid="8">
 <properties>
  <property name="AmbientLight" value="80 80 40"/>
  <property name="ViewportFollowPlayer" type="bool" value="true"/>
  <property name="Warp" value="18 14 Mountain 54 5 67 18 Mountain 103 17"/>
 </properties>
 <tileset firstgid="1" name="paths" tilewidth="16" tileheight="16" tilecount="64" columns="4">
  <image source="paths" width="64" height="256"/>
 </tileset>
 <tileset firstgid="65" name="untitled tile sheet" tilewidth="16" tileheight="16" tilecount="288" columns="16">
  <image source="Mines/mine" width="256" height="288"/>
 </tileset>
 <layer id="1" name="Back" width="3" height="3">
  <data encoding="csv">
202,282,283,
203,282,283,
202,282,0
</data>
 </layer>
 <layer id="2" name="Buildings" width="3" height="3">
  <data encoding="csv">
0,0,288,
0,238,144,
0,0,144
</data>
 </layer>
 <layer id="3" name="Front" width="3" height="3">
  <data encoding="csv">
0,0,0,
0,285,271,
0,301,128
</data>
 </layer>
 <layer id="4" name="Paths" width="3" height="3">
  <data encoding="csv">
0,0,0,
0,0,0,
0,0,0
</data>
 </layer>
 <objectgroup id="5" name="Back"/>
 <objectgroup id="6" name="Buildings">
  <object id="7" name="TileData" x="16" y="16" width="16" height="16">
   <properties>
    <property name="Action" value="Warp 30 22 ClintsCave2"/>
   </properties>
  </object>
 </objectgroup>
 <objectgroup id="7" name="Front"/>
 <objectgroup id="8" name="Paths"/>
</map>
