<?xml version="1.0" encoding="UTF-8"?>
<map version="1.10" tiledversion="1.12.1" orientation="orthogonal" renderorder="right-down" compressionlevel="0" width="4" height="4" tilewidth="16" tileheight="16" infinite="0" nextlayerid="17" nextobjectid="27">
 <properties>
  <property name="Warp" value="32 23 Town 40 35"/>
  <property name="indoorWater" value="T"/>
 </properties>
 <tileset firstgid="1" name="indoors" tilewidth="16" tileheight="16" tilecount="2176" columns="32">
  <image source="townInterior" width="512" height="1088"/>
 </tileset>
 <tileset firstgid="2177" name="indoors2" tilewidth="16" tileheight="16" tilecount="1312" columns="32">
  <image source="townInterior_2" width="512" height="656"/>
 </tileset>
 <tileset firstgid="3489" name="paths" tilewidth="16" tileheight="16" tilecount="64" columns="4">
  <image source="paths" width="64" height="256"/>
 </tileset>
 <tileset firstgid="3553" name="zwallsandfloors" tilewidth="16" tileheight="16" tilecount="688" columns="16">
  <image source="walls_and_floors.png" width="256" height="688"/>
 </tileset>
 <tileset firstgid="4241" name="z_JojaCCorderboard" tilewidth="16" tileheight="16" tilecount="16" columns="4">
  <image source="z_JojaCCorderboard.png" width="64" height="64"/>
 </tileset>
 <layer id="1" name="Back" width="4" height="4">
  <data encoding="csv">
1393,1393,1393,1393,
0,1393,1393,0,
3921,640,639,640,
3921,3921,3921,3921
</data>
 </layer>
 <layer id="11" name="Back1" width="4" height="4">
  <data encoding="csv">
0,0,0,0,
0,0,0,0,
0,0,0,0,
0,0,0,0
</data>
 </layer>
 <layer id="13" name="Back2" width="4" height="4">
  <data encoding="csv">
0,0,0,0,
0,0,0,0,
0,0,0,0,
0,0,0,0
</data>
 </layer>
 <layer id="15" name="Back3" width="4" height="4">
  <data encoding="csv">
0,0,0,0,
0,0,0,0,
0,0,0,0,
0,0,0,0
</data>
 </layer>
 <layer id="2" name="Buildings" width="4" height="4">
  <data encoding="csv">
0,0,0,1642,
4245,4246,0,0,
1703,1704,4251,4252,
0,0,4255,4256
</data>
 </layer>
 <layer id="16" name="Buildings1" width="4" height="4">
  <data encoding="csv">
4241,4242,4243,0,
0,0,4247,4248,
4249,4250,4251,0,
0,0,0,0
</data>
 </layer>
 <layer id="3" name="Front" width="4" height="4">
  <data encoding="csv">
0,0,0,0,
0,0,0,0,
0,0,0,0,
0,0,0,0
</data>
 </layer>
 <layer id="4" name="Front2" width="4" height="4">
  <properties>
   <property name="Draw" value="Front"/>
  </properties>
  <data encoding="csv">
0,0,0,0,
0,0,0,0,
0,0,0,0,
0,0,0,0
</data>
 </layer>
 <layer id="5" name="Paths" width="4" height="4">
  <data encoding="csv">
0,0,0,0,
0,3497,0,0,
0,0,0,0,
0,0,0,0
</data>
 </layer>
 <objectgroup id="14" name="Back-1"/>
 <objectgroup id="6" name="Back"/>
 <objectgroup id="7" name="Buildings">
  <object id="24" name="TileData" x="16" y="32" width="16" height="16">
   <properties>
    <property name="Action" value="Esca.EMP/CustomBoard Esca.EMP/blue704.JojaCC_Orders true"/>
   </properties>
  </object>
  <object id="25" name="TileData" x="32" y="48" width="16" height="16">
   <properties>
    <property name="Action" value="DropBox JojaCCorders"/>
   </properties>
  </object>
  <object id="26" name="TileData" x="48" y="48" width="16" height="16">
   <properties>
    <property name="Action" value="DropBox JojaCCorders"/>
   </properties>
  </object>
 </objectgroup>
 <objectgroup id="8" name="Front"/>
 <objectgroup id="9" name="Front2"/>
 <objectgroup id="10" name="Paths"/>
</map>
